**kern	**silbe	**kern	**silbe	**harmony	**phrase	**leadinstrument	**rhyme	**timestamp	**harte
*ICvox	*	*ICvox	*	*M4/4	*	*	*	*	*M4/4
*VRlead	*	*VRbacking*VRharmonize	*	*	*	*	*	*	*
*Hstimme	*	*Nstimme	*	*	*	*	*	*	*
*C:	*	*C:	*	*C:	*	*	*	*	*C:
*M4/4	*	*M4/4	*	*	*	*	*	*	*
*clefC3	*	*clefG2	*	*	*	*	*	*	*
r;	.	r;	.	1r;	.	r	.	0	N.C.
=1	=1	=1	=1	=1	=1	=1	=1	=1	=1
*>Letter>A	*>Letter>A	*>Letter>A	*>Letter>A	*>Letter>A	*>Letter>A	*>Letter>A	*>Letter>A	*>Letter>A	*>Letter>A
*>Label>Intro	*>Label>Intro	*>Label>Intro	*>Label>Intro	*>Label>Intro	*>Label>Intro	*>Label>Intro	*>Label>Intro	*>Label>Intro	*>Label>Intro
1r	.	1r	.	1CM	newline	r	.	0.232	C:maj
=2	=2	=2	=2	=2	=2	=2	=2	=2	=2
1r	.	1r	.	1CM	.	r	.	1.998	C:maj
=3	=3	=3	=3	=3	=3	=3	=3	=3	=3
1r	.	1r	.	1CM	.	r	.	3.765	C:maj
=4	=4	=4	=4	=4	=4	=4	=4	=4	=4
1r	.	1r	.	1CM	.	r	.	5.531	C:maj
=5	=5	=5	=5	=5	=5	=5	=5	=5	=5
*>Letter>B	*>Letter>B	*>Letter>B	*>Letter>B	*>Letter>B	*>Letter>B	*>Letter>B	*>Letter>B	*>Letter>B	*>Letter>B
*>Label>Verse	*>Label>Verse	*>Label>Verse	*>Label>Verse	*>Label>Verse	*>Label>Verse	*>Label>Verse	*>Label>Verse	*>Label>Verse	*>Label>Verse
4r	.	1r	.	1CM	newline	voice	.	7.297	C:maj
8c	To-	.	.	.	.	.	.	.	.
[8c	-night	.	.	.	.	.	A	.	.
4c]	_	.	.	.	.	.	.	.	.
8d	you're	.	.	.	.	.	.	.	.
[8d	mine	.	.	.	.	.	A	.	.
=6	=6	=6	=6	=6	=6	=6	=6	=6	=6
8d]	_	1r	.	1CM	.	voice	.	9.027	C:maj
[8c	_	.	.	.	.	.	.	.	.
4c]	_	.	.	.	.	.	.	.	.
4r	.	.	.	.	.	.	.	.	.
4e	com-	.	.	.	.	.	.	.	.
=7	=7	=7	=7	=7	=7	=7	=7	=7	=7
4.e	-plete	1r	.	1FM	.	voice	(B	10.757	F:maj
8d	_	.	.	.	.	.	.	.	.
4d	ly	.	.	.	.	.	b)	.	.
4r	.	.	.	.	.	.	.	.	.
=8	=8	=8	=8	=8	=8	=8	=8	=8	=8
1r	.	1r	.	1GM	.	voice	.	12.487	G:maj
=9	=9	=9	=9	=9	=9	=9	=9	=9	=9
4r	.	1r	.	1CM	newline	voice	.	14.217	C:maj
8c	you	.	.	.	.	.	.	.	.
[8c	give	.	.	.	.	.	.	.	.
8c]	_	.	.	.	.	.	.	.	.
8c	y-	.	.	.	.	.	.	.	.
8d	-your	.	.	.	.	.	.	.	.
[8d	love	.	.	.	.	.	.	.	.
=10	=10	=10	=10	=10	=10	=10	=10	=10	=10
8d]	_	1r	.	1CM	.	voice	.	15.966	C:maj
[8c	_	.	.	.	.	.	.	.	.
4c]	_	.	.	.	.	.	.	.	.
4r	.	.	.	.	.	.	.	.	.
4a	so	.	.	.	.	.	.	.	.
=11	=11	=11	=11	=11	=11	=11	=11	=11	=11
4.a	sweet	1r	.	1GMm	.	voice	(B	17.714	G:7/5
8g	_	.	.	.	.	.	.	.	.
4g	ly	.	.	.	.	.	b)	.	.
4r	.	.	.	.	.	.	.	.	.
=12	=12	=12	=12	=12	=12	=12	=12	=12	=12
2r	.	1r	.	1GMm	.	voice	.	19.462	G:7/5
4r	.	.	.	.	.	.	.	.	.
8f	To-	.	.	.	.	.	.	.	.
[8e	-night	.	.	.	.	.	A	.	.
=13	=13	=13	=13	=13	=13	=13	=13	=13	=13
*>Letter>C	*>Letter>C	*>Letter>C	*>Letter>C	*>Letter>C	*>Letter>C	*>Letter>C	*>Letter>C	*>Letter>C	*>Letter>C
*>Label>Chorus	*>Label>Chorus	*>Label>Chorus	*>Label>Chorus	*>Label>Chorus	*>Label>Chorus	*>Label>Chorus	*>Label>Chorus	*>Label>Chorus	*>Label>Chorus
2e]	_	1r	.	1EM	newline	voice	.	21.211	E:maj
4r	.	.	.	.	.	.	.	.	.
8B	the	.	.	.	.	.	.	.	.
8Bq	_	.	.	.	.	.	.	.	.
[8e	light	.	.	.	.	.	A	.	.
=14	=14	=14	=14	=14	=14	=14	=14	=14	=14
2e]	_	1r	.	1EM	.	voice	.	22.964	E:maj
8r	.	.	.	.	.	.	.	.	.
16dQ	_	.	.	.	.	.	.	.	.
16eQ	_	.	.	.	.	.	.	.	.
4.d	of	.	.	.	.	.	.	.	.
=15	=15	=15	=15	=15	=15	=15	=15	=15	=15
8d	love	1r	.	1Am	.	voice	.	24.717	A:min
8c	is	.	.	.	.	.	.	.	.
8B	in	.	.	.	.	.	.	.	.
[8d	your	.	.	.	.	.	.	.	.
8d]	_	.	.	.	.	.	.	.	.
8c	eyes	.	.	.	.	.	A	.	.
[4A	_	.	.	.	.	.	.	.	.
=16	=16	=16	=16	=16	=16	=16	=16	=16	=16
2A]	_	1r	.	1Am	.	voice	.	26.47	A:min
2r	.	.	.	.	.	.	.	.	.
=17	=17	=17	=17	=17	=17	=17	=17	=17	=17
*	*	*clefC3	*	*	*	*	*	*	*
4r	.	4r	.	1FM	newline	voice	.	28.223	F:maj
4c	Will	4c 4f 4a	Will	.	.	.	.	.	.
4c	you	4c 4f 4a	you	.	.	.	.	.	.
4f	still	4c 4f 4a	still	.	.	.	.	.	.
=18	=18	=18	=18	=18	=18	=18	=18	=18	=18
4e	love	4d 4g 4b	love	1GM	.	voice	.	29.958	G:maj
4d	me	4d 4g 4b	me	.	.	.	B	.	.
4r	.	4r	.	.	.	.	.	.	.
4d	to-	4d 4g 4b	to-	.	.	.	.	.	.
=19	=19	=19	=19	=19	=19	=19	=19	=19	=19
4.d	-mo-	4.c 4.e 4.g	-mo-	1CM	.	voice	.	31.694	C:maj
8c	-r-	8c 8e 8g	-r-	.	.	.	.	.	.
2c	-row?	[2c [2e [2g	-row	.	.	.	.	.	.
=20	=20	=20	=20	=20	=20	=20	=20	=20	=20
1r	.	2.c] 2.e] 2.g]	_	1CM	.	voice	.	33.429	C:maj
.	.	4r	.	.	.	.	.	.	.
=21	=21	=21	=21	=21	=21	=21	=21	=21	=21
*>Letter>B	*>Letter>B	*>Letter>B	*>Letter>B	*>Letter>B	*>Letter>B	*>Letter>B	*>Letter>B	*>Letter>B	*>Letter>B
*>Label>Verse	*>Label>Verse	*>Label>Verse	*>Label>Verse	*>Label>Verse	*>Label>Verse	*>Label>Verse	*>Label>Verse	*>Label>Verse	*>Label>Verse
4r	.	4r	.	1CM	newline	voice	.	35.165	C:maj
4c	Is	8c 8e 8g	Sha-	.	.	.	.	.	.
.	.	8c 8e 8g	-la-	.	.	.	.	.	.
4c	this	4c 4e 4g	-la-	.	.	.	.	.	.
4d	a	4c 4e 4g	-la!	.	.	.	.	.	.
=22	=22	=22	=22	=22	=22	=22	=22	=22	=22
4d	las-	4r	.	1CM	.	voice	.	36.91	C:maj
4c	-ting	8c 8e 8g	Sha-	.	.	.	.	.	.
.	.	8c 8e 8g	-la-	.	.	.	.	.	.
2r	.	4c 4e 4g	-la-	.	.	.	.	.	.
.	.	4c 4e 4g	-la!	.	.	.	.	.	.
=23	=23	=23	=23	=23	=23	=23	=23	=23	=23
4.e	trea	4r	.	1FM	.	voice	(C	38.654	F:maj
.	.	8c 8f 8a	Sha-	.	.	.	.	.	.
8d	_	8c 8f 8a	-la-	.	.	.	.	.	.
[2d	sure	4c 4f 4a	-la-	.	.	.	c)	.	.
.	.	4c 4f 4a	-la!	.	.	.	.	.	.
=24	=24	=24	=24	=24	=24	=24	=24	=24	=24
8d]	_	4r	.	1GM	.	voice	.	40.399	G:maj
8r	.	.	.	.	.	.	.	.	.
4r	.	8d 8g 8b	Sha-	.	.	.	.	.	.
.	.	8d 8g 8b	-la-	.	.	.	.	.	.
2r	.	4d 4g 4b	-la-	.	.	.	.	.	.
.	.	4d 4g 4b	-la!	.	.	.	.	.	.
=25	=25	=25	=25	=25	=25	=25	=25	=25	=25
4r	.	4r	.	1CM	newline	voice	.	42.144	C:maj
4c	or	8c 8e 8g	Sha-	.	.	.	.	.	.
.	.	8c 8e 8g	-la-	.	.	.	.	.	.
4c	just	4c 4e 4g	-la-	.	.	.	.	.	.
4d	a	4c 4e 4g	-la!	.	.	.	.	.	.
=26	=26	=26	=26	=26	=26	=26	=26	=26	=26
4d	mo-	4r	.	1CM	.	voice	.	43.89	C:maj
4c	-ment's	8c 8e 8g	Sha-	.	.	.	.	.	.
.	.	8c 8e 8g	-la-	.	.	.	.	.	.
2r	.	4c 4e 4g	-la-	.	.	.	.	.	.
.	.	4c 4e 4g	-la!	.	.	.	.	.	.
=27	=27	=27	=27	=27	=27	=27	=27	=27	=27
4.a	pleas	4r	.	1GMm	.	voice	(C	45.635	G:7/5
.	.	8d 8g 8b	Sha-	.	.	.	.	.	.
8g	_	8d 8g 8b	-la-	.	.	.	.	.	.
[2g	sure	4d 4g 4b	-la-	.	.	.	c)	.	.
.	.	4d 4g 4b	-la!	.	.	.	.	.	.
=28	=28	=28	=28	=28	=28	=28	=28	=28	=28
4.g]	_	4r	.	1GMm	.	voice	.	47.38	G:7/5
.	.	8d 8g 8b	Sha-	.	.	.	.	.	.
8r	.	8d 8g 8b	-la-	.	.	.	.	.	.
4r	.	4d 4g 4b	-la-	.	.	.	.	.	.
8f	Can	4d 4g 4b	-la!	.	.	.	.	.	.
[8e	I	.	.	.	.	.	.	.	.
=29	=29	=29	=29	=29	=29	=29	=29	=29	=29
*>Letter>C	*>Letter>C	*>Letter>C	*>Letter>C	*>Letter>C	*>Letter>C	*>Letter>C	*>Letter>C	*>Letter>C	*>Letter>C
*>Label>Chorus	*>Label>Chorus	*>Label>Chorus	*>Label>Chorus	*>Label>Chorus	*>Label>Chorus	*>Label>Chorus	*>Label>Chorus	*>Label>Chorus	*>Label>Chorus
2.e]	_	1r	.	1EM	newline	voice	.	49.126	E:maj
8B	be	.	.	.	.	.	.	.	.
8Bq	_	.	.	.	.	.	.	.	.
[8e	lieve	.	.	.	.	.	.	.	.
=30	=30	=30	=30	=30	=30	=30	=30	=30	=30
2e]	_	1r	.	1EM	.	voice	.	50.852	E:maj
8r	.	.	.	.	.	.	.	.	.
16dQ	_	.	.	.	.	.	.	.	.
16eQ	_	.	.	.	.	.	.	.	.
4.d	the	.	.	.	.	.	.	.	.
=31	=31	=31	=31	=31	=31	=31	=31	=31	=31
8d	ma-	1r	.	1Am	.	voice	.	52.578	A:min
8c	-gic	.	.	.	.	.	.	.	.
8B	of	.	.	.	.	.	.	.	.
[8d	your	.	.	.	.	.	.	.	.
6d]	_	.	.	.	.	.	.	.	.
6c	sighs	.	.	.	.	.	A	.	.
[6A	_	.	.	.	.	.	.	.	.
=32	=32	=32	=32	=32	=32	=32	=32	=32	=32
2A]	_	1r	.	1Am	.	voice	.	54.304	A:min
2r	.	.	.	.	.	.	.	.	.
=33	=33	=33	=33	=33	=33	=33	=33	=33	=33
4r	.	4r	.	1FM	newline	voice	.	56.03	F:maj
4c	Will	4c 4f 4a	Will	.	.	.	.	.	.
4c	you	4c 4f 4a	you	.	.	.	.	.	.
4e	still	4c 4f 4a	still	.	.	.	.	.	.
=34	=34	=34	=34	=34	=34	=34	=34	=34	=34
4e	love	4d 4g 4b	love	1GM	.	voice	.	57.793	G:maj
4d	me	4d 4g 4b	me	.	.	.	.	.	.
4r	.	4r	.	.	.	.	.	.	.
4d	to-	4d 4g 4b	to-	.	.	.	.	.	.
=35	=35	=35	=35	=35	=35	=35	=35	=35	=35
4.d	-mo-	4.c 4.e 4.g	-mo-	1CM	.	voice	.	59.557	C:maj
8c	-r-	8c 8e 8g	-r-	.	.	.	.	.	.
4c	-row?	[2c [2e [2g	-row	.	.	.	.	.	.
4r	.	.	.	.	.	.	.	.	.
=36	=36	=36	=36	=36	=36	=36	=36	=36	=36
1r	.	2.c] 2.e] 2.g]	_	1CM	.	voice	.	61.32	C:maj
.	.	4r	.	.	.	.	.	.	.
=37	=37	=37	=37	=37	=37	=37	=37	=37	=37
*>Letter>D	*>Letter>D	*>Letter>D	*>Letter>D	*>Letter>D	*>Letter>D	*>Letter>D	*>Letter>D	*>Letter>D	*>Letter>D
*>Label>Bridge	*>Label>Bridge	*>Label>Bridge	*>Label>Bridge	*>Label>Bridge	*>Label>Bridge	*>Label>Bridge	*>Label>Bridge	*>Label>Bridge	*>Label>Bridge
4r	.	1r	.	1FM	newline	voice	.	63.084	F:maj
4a	To-	.	.	.	.	.	.	.	.
4a	-night	.	.	.	.	.	.	.	.
4a	with	.	.	.	.	.	.	.	.
=38	=38	=38	=38	=38	=38	=38	=38	=38	=38
2a	words	1r	.	1FM	.	voice	.	64.839	F:maj
4r	.	.	.	.	.	.	.	.	.
4a	un-	.	.	.	.	.	.	.	.
=39	=39	=39	=39	=39	=39	=39	=39	=39	=39
4.a	-spo	1r	.	1Em	.	voice	(D	66.593	E:min
8g	_	.	.	.	.	.	.	.	.
2g	ken	.	.	.	.	.	d)	.	.
=40	=40	=40	=40	=40	=40	=40	=40	=40	=40
1r	.	1r	.	1Em	.	voice	.	68.348	E:min
=41	=41	=41	=41	=41	=41	=41	=41	=41	=41
4r	.	1r	.	1FM	newline	voice	.	70.103	F:maj
4a	you	.	.	.	.	.	.	.	.
4a	said	.	.	.	.	.	.	.	.
8a	that	.	.	.	.	.	.	.	.
8g	I-	.	.	.	.	.	.	.	.
=42	=42	=42	=42	=42	=42	=42	=42	=42	=42
4a	-I'm	1r	.	1FM	.	voice	.	71.858	F:maj
8a	the	.	.	.	.	.	.	.	.
[8g	o	.	.	.	.	.	.	.	.
8g]	_	.	.	.	.	.	.	.	.
8g	n-	.	.	.	.	.	.	.	.
4f	-ly	.	.	.	.	.	.	.	.
=43	=43	=43	=43	=43	=43	=43	=43	=43	=43
4.e	one	1r	.	1CM	.	voice	E	73.613	C:maj
8d	_	.	.	.	.	.	.	.	.
4.c	_	.	.	.	.	.	.	.	.
8A	_	.	.	.	.	.	.	.	.
=44	=44	=44	=44	=44	=44	=44	=44	=44	=44
2G	_	1r	.	1CM	.	voice	.	75.369	C:maj
2r	.	.	.	.	.	.	.	.	.
=45	=45	=45	=45	=45	=45	=45	=45	=45	=45
4r	.	1r	.	1FM	newline	voice	.	77.124	F:maj
8a	But-	.	.	.	.	.	.	.	.
8g	-tw-	.	.	.	.	.	.	.	.
4a	-will	.	.	.	.	.	.	.	.
4a	my	.	.	.	.	.	.	.	.
=46	=46	=46	=46	=46	=46	=46	=46	=46	=46
2a	heart	1r	.	1FM	.	voice	.	78.895	F:maj
4r	.	.	.	.	.	.	.	.	.
4a	be	.	.	.	.	.	.	.	.
=47	=47	=47	=47	=47	=47	=47	=47	=47	=47
4.a	bro	1r	.	1Em	.	voice	(D	80.665	E:min
8g	_	.	.	.	.	.	.	.	.
2g	ken	.	.	.	.	.	d)	.	.
=48	=48	=48	=48	=48	=48	=48	=48	=48	=48
2r	.	1r	.	1Em	.	voice	.	82.436	E:min
4r	.	.	.	.	.	.	.	.	.
8e	when	.	.	.	.	.	.	.	.
8d	the	.	.	.	.	.	.	.	.
=49	=49	=49	=49	=49	=49	=49	=49	=49	=49
8d	night	4r	.	1Am	newline	voice	.	84.207	A:min
[8c	_	.	.	.	.	.	.	.	.
4c]	_	8A 8c 8e	When	.	.	.	.	.	.
.	.	8A 8c 8e	the	.	.	.	.	.	.
4r	.	4A 4c 4e	night!	.	.	.	.	.	.
8e	meets	4r	.	.	.	.	.	.	.
8e	the	.	.	.	.	.	.	.	.
=50	=50	=50	=50	=50	=50	=50	=50	=50	=50
2.d	mor-	4r	.	1DMm	.	voice	.	85.968	D:7
.	.	8d 8f# 8a	Meets	.	.	.	.	.	.
.	.	8d 8f# 8a	the	.	.	.	.	.	.
.	.	4d 4f# 4a	mor-	.	.	.	.	.	.
4a	-ning	4d 4f# 4a	-ning	.	.	.	.	.	.
=51	=51	=51	=51	=51	=51	=51	=51	=51	=51
[2a	sun?	[1d 1f 1a	sun?	1FM	.	voice	E	87.729	F:maj
8a]	_	.	.	.	.	.	.	.	.
8g	_	.	.	.	.	.	.	.	.
4a	_	.	.	.	.	.	.	.	.
=52	=52	=52	=52	=52	=52	=52	=52	=52	=52
1g	_	1d] 1g 1b	_	1GM	.	voice	.	89.49	G:maj
=53	=53	=53	=53	=53	=53	=53	=53	=53	=53
*>Letter>B	*>Letter>B	*>Letter>B	*>Letter>B	*>Letter>B	*>Letter>B	*>Letter>B	*>Letter>B	*>Letter>B	*>Letter>B
*>Label>Verse	*>Label>Verse	*>Label>Verse	*>Label>Verse	*>Label>Verse	*>Label>Verse	*>Label>Verse	*>Label>Verse	*>Label>Verse	*>Label>Verse
4r	.	4r	.	1CM	newline	voice	.	91.251	C:maj
4c	I	8c 8e 8g	_	.	.	.	.	.	.
.	.	8c 8e 8g	_	.	.	.	.	.	.
4c	like	4c 4e 4g	_	.	.	.	.	.	.
8d	to	4c 4e 4g	_	.	.	.	.	.	.
[8d	know	.	.	.	.	.	.	.	.
=54	=54	=54	=54	=54	=54	=54	=54	=54	=54
8d]	_	4r	.	1CM	.	voice	.	92.995	C:maj
4c	_	.	.	.	.	.	.	.	.
.	.	8c 8e 8g	_	.	.	.	.	.	.
8r	.	8c 8e 8g	_	.	.	.	.	.	.
4r	.	4c 4e 4g	_	.	.	.	.	.	.
8e	that	4c 4e 4g	_	.	.	.	.	.	.
8e	y-	.	.	.	.	.	.	.	.
=55	=55	=55	=55	=55	=55	=55	=55	=55	=55
4.e	-your	4r	.	1FM	.	voice	.	94.739	F:maj
.	.	8c 8f 8a	_	.	.	.	.	.	.
8d	_	8c 8f 8a	_	.	.	.	.	.	.
[2d	love	4c 4f 4a	_	.	.	.	F	.	.
.	.	4c 4f 4a	_	.	.	.	.	.	.
=56	=56	=56	=56	=56	=56	=56	=56	=56	=56
8d]	_	4r	.	1GM	.	voice	.	96.484	G:maj
8r	.	.	.	.	.	.	.	.	.
4r	.	8d 8g 8b	_	.	.	.	.	.	.
.	.	8d 8g 8b	_	.	.	.	.	.	.
2r	.	4d 4g 4b	_	.	.	.	.	.	.
.	.	4d 4g 4b	_	.	.	.	.	.	.
=57	=57	=57	=57	=57	=57	=57	=57	=57	=57
4r	.	4r	.	1CM	newline	voice	.	98.228	C:maj
8c	is	8c 8e 8g	_	.	.	.	.	.	.
8c	a	8c 8e 8g	_	.	.	.	.	.	.
4c	love	4c 4e 4g	_	.	.	.	F	.	.
4d	I	4c 4e 4g	_	.	.	.	.	.	.
=58	=58	=58	=58	=58	=58	=58	=58	=58	=58
8.~d	can	4r	.	1CM	.	voice	.	99.976	C:maj
[16~c	_	.	.	.	.	.	.	.	.
4~c]	_	8c 8e 8g	_	.	.	.	.	.	.
.	.	8c 8e 8g	_	.	.	.	.	.	.
4r	.	4c 4e 4g	_	.	.	.	.	.	.
4a	be	4c 4e 4g	_	.	.	.	.	.	.
=59	=59	=59	=59	=59	=59	=59	=59	=59	=59
4.a	sure	4r	.	1GMm	.	voice	.	101.723	G:7/5
.	.	8d 8g 8b	_	.	.	.	.	.	.
8g	_	8d 8g 8b	_	.	.	.	.	.	.
[2g	of	4d 4g 4b	_	.	.	.	F	.	.
.	.	4d 4g 4b	_	.	.	.	.	.	.
=60	=60	=60	=60	=60	=60	=60	=60	=60	=60
4g]	_	4r	.	1GMm	.	voice	.	103.471	G:7/5
4r	.	8d 8g 8b	_	.	.	.	.	.	.
.	.	8d 8g 8b	_	.	.	.	.	.	.
4r	.	4d 4g 4b	_	.	.	.	.	.	.
4f	So	4d 4g 4b	_	.	.	.	.	.	.
=61	=61	=61	=61	=61	=61	=61	=61	=61	=61
*>Letter>C	*>Letter>C	*>Letter>C	*>Letter>C	*>Letter>C	*>Letter>C	*>Letter>C	*>Letter>C	*>Letter>C	*>Letter>C
*>Label>Chorus	*>Label>Chorus	*>Label>Chorus	*>Label>Chorus	*>Label>Chorus	*>Label>Chorus	*>Label>Chorus	*>Label>Chorus	*>Label>Chorus	*>Label>Chorus
2.e	tell	1r	.	1EM	newline	voice	.	105.219	E:maj
8B	me	.	.	.	.	.	.	.	.
8Bq	_	.	.	.	.	.	.	.	.
[8e	now	.	.	.	.	.	.	.	.
=62	=62	=62	=62	=62	=62	=62	=62	=62	=62
2e]	_	1r	.	1EM	.	voice	.	106.974	E:maj
4r	.	.	.	.	.	.	.	.	.
4d	and	.	.	.	.	.	.	.	.
=63	=63	=63	=63	=63	=63	=63	=63	=63	=63
4d	I	1r	.	1Am	.	voice	.	108.729	A:min
4c	won't	.	.	.	.	.	.	.	.
4B	ask	.	.	.	.	.	.	.	.
8d	a-	.	.	.	.	.	.	.	.
[8c	-gain	.	.	.	.	.	.	.	.
=64	=64	=64	=64	=64	=64	=64	=64	=64	=64
16c]	_	1r	.	1Am	.	voice	.	110.484	A:min
[8.A	_	.	.	.	.	.	.	.	.
2A]	_	.	.	.	.	.	.	.	.
4r	.	.	.	.	.	.	.	.	.
=65	=65	=65	=65	=65	=65	=65	=65	=65	=65
4r	.	4r	.	1FM	newline	voice	.	112.239	F:maj
4c	Will	4c 4f 4a	Will	.	.	.	.	.	.
4c	you	4c 4f 4a	you	.	.	.	.	.	.
4e	still	4c 4f 4a	still	.	.	.	.	.	.
=66	=66	=66	=66	=66	=66	=66	=66	=66	=66
4e	love	4d 4g 4b	love	1GM	.	voice	.	114.002	G:maj
4d	me	4d 4g 4b	me	.	.	.	.	.	.
4r	.	4r	.	.	.	.	.	.	.
4d	to-	4d 4g 4b	to-	.	.	.	.	.	.
=67	=67	=67	=67	=67	=67	=67	=67	=67	=67
4.d	-mo-	4.c 4.e 4.g	-mo-	1CM	.	voice	.	115.766	C:maj
8c	-r-	8c 8e 8g	-r-	.	.	.	.	.	.
4c	-row?	[2c [2e [2g	-row	.	.	.	.	.	.
4r	.	.	.	.	.	.	.	.	.
=68	=68	=68	=68	=68	=68	=68	=68	=68	=68
1r	.	2c_ 2e_ 2g_	_	1CM	.	voice	.	117.529	C:maj
.	.	8c] 8e] 8g]	_	.	.	.	.	.	.
.	.	8r	.	.	.	.	.	.	.
.	.	4r	.	.	.	.	.	.	.
=69	=69	=69	=69	=69	=69	=69	=69	=69	=69
*>Letter>B	*>Letter>B	*>Letter>B	*>Letter>B	*>Letter>B	*>Letter>B	*>Letter>B	*>Letter>B	*>Letter>B	*>Letter>B
*>Label>Instrumental	*>Label>Instrumental	*>Label>Instrumental	*>Label>Instrumental	*>Label>Instrumental	*>Label>Instrumental	*>Label>Instrumental	*>Label>Instrumental	*>Label>Instrumental	*>Label>Instrumental
1r	.	1r	.	1CM	newline	strings	.	119.292	C:maj
=70	=70	=70	=70	=70	=70	=70	=70	=70	=70
1r	.	1r	.	1CM	.	strings	.	121.02	C:maj
=71	=71	=71	=71	=71	=71	=71	=71	=71	=71
1r	.	1r	.	1FM	.	strings	.	122.747	F:maj
=72	=72	=72	=72	=72	=72	=72	=72	=72	=72
1r	.	1r	.	1GM	.	strings	.	124.474	G:maj
=73	=73	=73	=73	=73	=73	=73	=73	=73	=73
1r	.	1r	.	1CM	newline	strings	.	126.202	C:maj
=74	=74	=74	=74	=74	=74	=74	=74	=74	=74
1r	.	1r	.	1CM	.	strings	.	127.967	C:maj
=75	=75	=75	=75	=75	=75	=75	=75	=75	=75
1r	.	1r	.	1GMm	.	strings	.	129.732	G:7/5
=76	=76	=76	=76	=76	=76	=76	=76	=76	=76
2r	.	1r	.	1GMm	.	strings	.	131.497	G:7/5
4r	.	.	.	.	.	.	.	.	.
4f	So	.	.	.	.	.	.	.	.
=77	=77	=77	=77	=77	=77	=77	=77	=77	=77
*>Letter>C2	*>Letter>C2	*>Letter>C2	*>Letter>C2	*>Letter>C2	*>Letter>C2	*>Letter>C2	*>Letter>C2	*>Letter>C2	*>Letter>C2
*>Label>Chorus	*>Label>Chorus	*>Label>Chorus	*>Label>Chorus	*>Label>Chorus	*>Label>Chorus	*>Label>Chorus	*>Label>Chorus	*>Label>Chorus	*>Label>Chorus
2.e	tell	1r	.	1EM	newline	voice	.	133.262	E:maj
8B	me	.	.	.	.	.	.	.	.
8Bq	_	.	.	.	.	.	.	.	.
[8e	now	.	.	.	.	.	.	.	.
=78	=78	=78	=78	=78	=78	=78	=78	=78	=78
2e]	_	1r	.	1EM	.	voice	.	135.021	E:maj
4r	.	.	.	.	.	.	.	.	.
4d	and	.	.	.	.	.	.	.	.
=79	=79	=79	=79	=79	=79	=79	=79	=79	=79
4d	I	1r	.	1Am	.	voice	.	136.781	A:min
4c	won't	.	.	.	.	.	.	.	.
4B	ask	.	.	.	.	.	.	.	.
8d	a-	.	.	.	.	.	.	.	.
[8c	-gain	.	.	.	.	.	.	.	.
=80	=80	=80	=80	=80	=80	=80	=80	=80	=80
16c]	_	1r	.	1Am	.	voice	.	138.541	A:min
[8.A	_	.	.	.	.	.	.	.	.
2A]	_	.	.	.	.	.	.	.	.
4r	.	.	.	.	.	.	.	.	.
=81	=81	=81	=81	=81	=81	=81	=81	=81	=81
4r	.	4r	.	1FM	newline	voice	.	140.301	F:maj
4c	Will	4c 4f 4a	Will	.	.	.	.	.	.
4c	you	4c 4f 4a	you	.	.	.	.	.	.
4e	still	4c 4f 4a	still	.	.	.	.	.	.
=82	=82	=82	=82	=82	=82	=82	=82	=82	=82
4e	love	4d 4g 4b	love	1GM	.	voice	.	142.077	G:maj
4d	me	4d 4g 4b	me	.	.	.	.	.	.
4r	.	4r	.	.	.	.	.	.	.
4d	to-	4d 4g 4b	to-	.	.	.	.	.	.
=83	=83	=83	=83	=83	=83	=83	=83	=83	=83
4.d	-mo-	4.c 4.e 4.g	-mo-	1CM	.	voice	.	143.854	C:maj
8c	-r-	8c 8e 8g	-r-	.	.	.	.	.	.
4c	-row?	[2c [2e [2g	-row	.	.	.	.	.	.
4r	.	.	.	.	.	.	.	.	.
=84	=84	=84	=84	=84	=84	=84	=84	=84	=84
1r	.	2c_ 2e_ 2g_	_	1CM	.	voice	.	145.631	C:maj
.	.	8c] 8e] 8g]	_	.	.	.	.	.	.
.	.	8r	.	.	.	.	.	.	.
.	.	4r	.	.	.	.	.	.	.
=85	=85	=85	=85	=85	=85	=85	=85	=85	=85
4r	.	4r	.	1FM	newline	voice	.	147.407	F:maj
4c	Will	4c 4f 4a	Will	.	.	.	.	.	.
4c	you	4c 4f 4a	you	.	.	.	.	.	.
4e	still	4c 4f 4a	still	.	.	.	.	.	.
=86	=86	=86	=86	=86	=86	=86	=86	=86	=86
4e	love	4d 4g 4b	love	1GM	.	voice	.	149.151	G:maj
4d	me	4d 4g 4b	me	.	.	.	.	.	.
4r	.	4r	.	.	.	.	.	.	.
4d	to-	4d 4g 4b	to-	.	.	.	.	.	.
=87	=87	=87	=87	=87	=87	=87	=87	=87	=87
4.d	-mo-	4.c 4.e 4.g	-mo-	1CM	.	voice	.	150.895	C:maj
8c	-r-	8c 8e 8g	-r-	.	.	.	.	.	.
4c	-row?	[2c [2e [2g	-row	.	.	.	.	.	.
4r	.	.	.	.	.	.	.	.	.
=88	=88	=88	=88	=88	=88	=88	=88	=88	=88
1r	.	2c_ 2e_ 2g_	_	1CM	.	voice	.	152.639	C:maj
.	.	8c] 8e] 8g]	_	.	.	.	.	.	.
.	.	8r	.	.	.	.	.	.	.
.	.	4r	.	.	.	.	.	.	.
=89	=89	=89	=89	=89	=89	=89	=89	=89	=89
*>Label>>Fadeout	*>Label>>Fadeout	*>Label>>Fadeout	*>Label>>Fadeout	*>Label>>Fadeout	*>Label>>Fadeout	*>Label>>Fadeout	*>Label>>Fadeout	*>Label>>Fadeout	*>Label>>Fadeout
4r	.	4r	.	1FM	newline	voice	.	154.382	F:maj
4c	Will	4c 4f 4a	Will	.	.	.	.	.	.
4c	you	4c 4f 4a	you	.	.	.	.	.	.
4e	still	4c 4f 4a	still	.	.	.	.	.	.
=90	=90	=90	=90	=90	=90	=90	=90	=90	=90
4e	love	4d 4g 4b	love	1GM	.	voice	.	156.021	G:maj
4d	me	4d 4g 4b	me	.	.	.	.	.	.
4r	.	4r	.	.	.	.	.	.	.
4d	to-	4d 4g 4b	to-	.	.	.	.	.	.
=91	=91	=91	=91	=91	=91	=91	=91	=91	=91
4.d	-mo-	4.c 4.e 4.g	-mo-	1CM	.	voice	.	157.66	C:maj
8c	-r-	8c 8e 8g	-r-	.	.	.	.	.	.
4c	-row?	[2c [2e [2g	-row	.	.	.	.	.	.
4r	.	.	.	.	.	.	.	.	.
=92	=92	=92	=92	=92	=92	=92	=92	=92	=92
1r	.	2c_ 2e_ 2g_	_	1CM	.	voice	.	159.299	C:maj
.	.	8c] 8e] 8g]	_	.	.	.	.	.	.
.	.	8r	.	.	.	.	.	.	.
.	.	4r	.	.	.	.	.	.	.
r;	.	r;	.	1r;	.	r	.	160.938	N.C.
r;	.	r;	.	1r;	.	r	.	163.579	N.C.
*-	*-	*-	*-	*-	*-	*-	*-	*-	*-
!!!BillboardChartDate: 1961/01/09
!!!BillboardPeak: 1
!!!BillboardWeeksOnChart: 19
!!!COC: The Shirelles
!!!ENC: Nathaniel Condit-Schultz
!!!EST: Awating manual error checking and editing.
!!!OTL: Will You Love Me Tomorrow
!!!RDF**chordsym: original McGill chord annotation + (implied pitch class set, with bass pitch in first position)
!!!RDF**harmony: **recip + pitch class of root + harmonic quality
!!!RDF**leadinstrument: original McGill primary instrumentation annotation
!!!RDF**phrase: newline = linebreak in original McGill transcription
!!!RDF**timestamp: McGill audio timestamp in seconds
!!!RDT: 2017/01/12/
!!!SampleActualRank: 5
!!!SampleID#: 1239
!!!SampleTargetRank: 6
